build/img/sprite/icon-star.svg

<svg width="22" height="20" viewBox="0 0 22 20" fill="none" xmlns="http://www.w3.org/2000/svg">
<path d="M10.1817 0.85958C10.4816 -0.0606967 11.7835 -0.0606959 12.0833 0.859581L13.8344 6.23398C13.9685 6.64561 14.3523 6.92418 14.7852 6.92418H20.446C21.4154 6.92418 21.8177 8.16521 21.0327 8.73398L16.4578 12.0486C16.1064 12.3033 15.9593 12.7555 16.0937 13.1682L17.8423 18.5349C18.1423 19.4557 17.089 20.2227 16.3048 19.6544L11.7192 16.3321C11.3692 16.0784 10.8958 16.0784 10.5458 16.3321L5.96025 19.6544C5.176 20.2227 4.12271 19.4557 4.42273 18.5348L6.1713 13.1682C6.30576 12.7555 6.15868 12.3033 5.80722 12.0486L1.23234 8.73398C0.447338 8.16521 0.849669 6.92418 1.81906 6.92418H7.47982C7.91274 6.92418 8.2965 6.64561 8.43062 6.23398L10.1817 0.85958Z" fill="currentColor"/>
</svg>

<svg width="22" height="20" fill="none" xmlns="http://www.w3.org/2000/svg"><path d="M10.182.86c.3-.92 1.601-.92 1.901 0l1.751 5.374a1 1 0 0 0 .951.69h5.661c.97 0 1.372 1.241.587 1.81l-4.575 3.315a1 1 0 0 0-.364 1.12l1.748 5.366c.3.92-.753 1.688-1.537 1.12l-4.586-3.323a1 1 0 0 0-1.173 0L5.96 19.654c-.784.569-1.837-.198-1.537-1.12l1.748-5.366a1 1 0 0 0-.364-1.12L1.232 8.735c-.785-.569-.382-1.81.587-1.81h5.66a1 1 0 0 0 .952-.69L10.18.86Z" fill="currentColor"/></svg>
